X: 18101
T: Humours Of Ballymanus, The
R: slip jig
M: 9/8
K: Dmajor
|:A2 A AGF AGF|A2 A AGF Bcd|A2 A AGF AGF|BcB B2 ^A Bcd:|
|:d2 e fdB ecA|d2 e fdB fga|d2 e fdB ecA|BcB B2 ^A Bcd:|
|:FAF dAF dAF|FAF dAF Bcd|FAF dAF dAF|BcB B2 ^A Bcd:|
f2 f efe d2 B|A2 A AGF AGF|fgf efe d2 G|BcB B2 ^A Bcd|
f2 z e2 z d2 z|ABA AGF AGF|fgf efe d2 G|B2 B B3- B3||
|:A2 A AGF A2 F|A2 A AGF B2 d|A2 A AGF AGF|B2 B B2 A Bcd:|
|:dfa a2 d cBA|d2 e fdB f2 a|d2 a a2 d cBA|B2 B B2 A Bcd:|
|:F2 F dAF d2 A|FAF d2 A Bcd|F2 F d2 A d2 F|B2 B B2 A Bcd:|

